X:1
T:French Suite I Sarabande
T:BWV 812
T:J. S. Bach
%%score { ( 1 2 5 ) | ( 3 4 6 ) }
L:1/8
Q:1/4=132
M:3/4
K:F
V:1 treble nm="Harp"
V:2 treble 
V:5 treble 
V:3 bass 
V:4 bass 
V:6 bass 
V:1
"^Allegro" A2 BA ^cd | GA B4- | BA Ge AG | ^FG A4- | Ad BA G^F | GB AG FE | DF BG _e^c | ^ga ^c4 | %8
 A2 BA ^cd | GA B4- | BA Ge AG | ^FG A4- | Ad BA G^F | GB AG FE | DF BG _e^c | ^ga ^c4 | e2 e2 f2 | %17
 ^c2 c4 | c2 cB _e2- | ed c^f ga | ^a2 b2 b2 | ba c'b ag | ^fg ba gf | g2 g4 | e2 fe ga | ef f4- | %26
 fe d=b ed | ^cd e4- | ea fe dc | Bg ^cB AG | FB ^GA fe | ^cd d4 | e2 e2 f2 | ^c2 c4 | c2 cB _e2- | %35
 ed c^f ga | ^a2 b2 b2 | ba c'b ag | ^fg ba gf | g2 g4 | e2 fe ga | ef f4- | fe d=b ed | ^cd e4- | %44
 ea fe dc | Bg ^cB AG | FB ^GA fe | ^cd !fermata!d4 |] %48
V:2
 F2 G2 F2 | E2 E4- | E2 E2 E2 | D2 D4- | D2 D2 D2 | ^C2 C2 C2 | D2 z2 G2 | A2 A4 | F2 G2 F2 | %9
 E2 E4- | E2 E2 E2 | D2 D4- | D2 D2 D2 | ^C2 C2 C2 | D2 z2 G2 | A2 A4 | ^c2 c2 [Ad]2 | A2 GB AG | %18
 ^F2 GB c2 | c2 z2 z2 | f2 g2 g2 | g z z4 | AB dc BA | B2 d4 | c2 dc ef | Bc c4 | =B2 B2 B2 | %27
 A2 A4 | A2 A2 A2 | G2 G2 E2 | D^C D2 A=G | G2 ^F4 | ^c2 c2 [Ad]2 | A2 GB AG | ^F2 GB c2 | %35
 c2 z2 z2 | f2 g2 g2 | g z z4 | AB dc BA | B2 d4 | c2 dc ef | Bc c4 | =B2 B2 B2 | A2 A4 | %44
 A2 A2 A2 | G2 G2 E2 | D^C D2 A=G | G2 ^F4 |] %48
V:3
 D2 D2 D2 | B,A, G,4- | G,E, A,2 A,2 | A,G, ^F,4- | F,2 G,2 G,2 | A,2 E,2 A,G, | F,2 G,2 G,E, | %7
 F,D, E,4 | D2 D2 D2 | B,A, G,4- | G,E, A,2 A,2 | A,G, ^F,4- | F,2 G,2 G,2 | A,2 E,2 A,G, | %14
 F,2 G,2 G,E, | F,D, E,4 | A,,2 B,,A,, ^C,D, | G,,A,, B,,4- | B,,A,, G,,_E, A,,G,, | %19
 ^F,,G,, A,,4- | A,,D, B,,A,, G,,F,, | _E,,2 z B,, C,D, | _E,2 D,2 D,,2 | G,,D, _E,D, ^F,G, | %24
[I:staff -1] G2[I:staff +1] G2 G2- | GF[I:staff -1] A4 |[I:staff +1] D=B, E2 E2- | ED ^C4 | %28
 F2 D2 D2 | D2 E2 A,2 | A,G,[I:staff -1] D2[I:staff +1] ^CE | B,2 A,4 | A,,2 B,,A,, ^C,D, | %33
 G,,A,, B,,4- | B,,A,, G,,_E, A,,G,, | ^F,,G,, A,,4- | A,,D, B,,A,, G,,F,, | _E,,2 z B,, C,D, | %38
 _E,2 D,2 D,,2 | G,,D, _E,D, ^F,G, |[I:staff -1] G2[I:staff +1] G2 G2- | GF[I:staff -1] A4 | %42
[I:staff +1] D=B, E2 E2- | ED ^C4 | F2 D2 D2 | D2 E2 A,2 | A,G,[I:staff -1] D2[I:staff +1] ^CE | %47
 B,2 A,4 |] %48
V:4
 D,2 D,2 D,2 | D,3 F, E,D, | ^C,2 C,2 C,2 | C,3 _E, D,C, | B,,2 B,,2 B,,2 | A,,2 A,,2 A,,2 | %6
 A,,2 G,,2 B,,2 | A,,2 A,,4 | D,2 D,2 D,2 | D,3 F, E,D, | ^C,2 C,2 C,2 | C,3 _E, D,C, | %12
 B,,2 B,,2 B,,2 | A,,2 A,,2 A,,2 | A,,2 G,,2 B,,2 | A,,2 A,,4 | x6 | x6 | x6 | x6 | x6 | x6 | x6 | %23
 x6 | B,,2 B,2 B,2 | A,2- A,C B,A, | ^G,2 G,2 G,2 | G,3 _B, A,G, | F,2 F,2 F,2 | F,2 E,D, ^C,2 | %30
 D,E, F,D, A,2 | D,2 D,4 | x6 | x6 | x6 | x6 | x6 | x6 | x6 | x6 | B,,2 B,2 B,2 | A,2- A,C B,A, | %42
 ^G,2 G,2 G,2 | G,3 _B, A,G, | F,2 F,2 F,2 | F,2 E,D, ^C,2 | D,E, F,D, A,2 | D,2 !fermata!D,4 |] %48
V:5
 x6 | x6 | x6 | x6 | x6 | x6 | x6 | x6 | x6 | x6 | x6 | x6 | x6 | x6 | x6 | x6 | A2 G2 F2 | %17
 E2 EG FE | E2 EG ^FG | A2[I:staff +1] [_E,^F,]4 |[I:staff -1] d2 d2 d2 | dc _ed cB | %22
 z2[I:staff +1] ^F,2[I:staff -1] z2 | z2 B4 | x6 | x6 | x6 | x6 | x6 | x6 | z4[I:staff +1] ^C2 | %31
[I:staff -1] ED D4 | A2 G2 F2 | E2 EG FE | E2 EG ^FG | A2[I:staff +1] [_E,^F,]4 | %36
[I:staff -1] d2 d2 d2 | dc _ed cB | z2[I:staff +1] ^F,2[I:staff -1] z2 | z2 B4 | x6 | x6 | x6 | %43
 x6 | x6 | x6 | z4[I:staff +1] ^C2 |[I:staff -1] ED D4 |] %48
V:6
 x6 | x6 | x6 | x6 | x6 | x6 | x6 | x6 | x6 | x6 | x6 | x6 | x6 | x6 | x6 | x6 | x6 | x6 | x6 | %19
 x6 | x6 | x6 | x6 | x6 | x6 | x6 | x6 | x6 | x6 | x6 | z4 A,2 | x6 | x6 | x6 | x6 | x6 | x6 | x6 | %38
 x6 | x6 | x6 | x6 | x6 | x6 | x6 | x6 | z4 A,2 | x6 |] %48

